X:1
%
T:Pig under the pot, The
S:James Goodman music manuscript collection (mid-19th cent., County Cork)
M:6/8
L:1/8
N:A version of "Paddy Whack [1]"
R:Jig or Air
F: http://goodman.itma.ie/volume-three#?c=0&m=0&s=0&cv=76&z=1276.7803%2C1931.2942%2C6145.2395%2C3722.2222
K:D
DFA dcd|BAG FEF|DFA Bcd|cAA A2 B/c/|
dfd ecA|GAB AFD|DEF GEA|FDD D2||
E/F/|F3 G2B|AFD E2D|DFA Bcd|cAA A2 B/c/|
dfd ecA|GAB AFD|DEF GEA|FDD D2||

